X: 21261
Q: "Not too fast."
M: C
L: 1/8
K: Bb
.a.g.f.e .d.c.B.b | .a.g.f.e .d.c.B.b |
.a.g.f.e .d.e=ef | gGc>B AFGA |\
b2 bb a2 b z/a/ |
gfed cde=e |\
f2 f>f =e2 f z/g/ | a>bg>f f3 d |\
e2 e>e d2 e>f | gGc>B AFGA |\


